X: 4097
T: Bloody Fields Of Flanders, The
R: waltz
M: 3/4
K: Amixolydian
e3/2c/ A2 A3/2B/|ce f2 e2|f/g/a e2 de|cA cd/c/ B2|
e3/2c/ A2 A3/2B/|ce f2 e2|f/g/a e2 e/c/A/B/|cB A4:|
fg a2 ae|fa e2 c2|f/g/a e2 de|cA cd/c/ B2|
e3/2c/ A2 A3/2B/|ce f2 e2|f/g/a e2 e/c/A/B/|cB A4:|

